src/pos-icons/cast.svg

<svg height="24" viewBox="0 0 24 24" width="24" xmlns="http://www.w3.org/2000/svg"><path d="m1 10v2a9 9 0 0 1 9 9h2c0-6.08-4.93-11-11-11m0 4v2a5 5 0 0 1 5 5h2a7 7 0 0 0 -7-7m0 4v3h3a3 3 0 0 0 -3-3m20-15h-18c-1.11 0-2 .89-2 2v3h2v-3h18v14h-7v2h7a2 2 0 0 0 2-2v-14c0-1.11-.9-2-2-2z"/></svg>

<?xml version="1.0" encoding="UTF-8"?><!DOCTYPE svg PUBLIC "-//W3C//DTD SVG 1.1//EN" "http://www.w3.org/Graphics/SVG/1.1/DTD/svg11.dtd"><svg xmlns="http://www.w3.org/2000/svg" xmlns:xlink="http://www.w3.org/1999/xlink" version="1.1" id="mdi-cast" width="24" height="24" viewBox="0 0 24 24"><path d="M1,10V12A9,9 0 0,1 10,21H12C12,14.92 7.07,10 1,10M1,14V16A5,5 0 0,1 6,21H8A7,7 0 0,0 1,14M1,18V21H4A3,3 0 0,0 1,18M21,3H3C1.89,3 1,3.89 1,5V8H3V5H21V19H14V21H21A2,2 0 0,0 23,19V5C23,3.89 22.1,3 21,3Z" /></svg>
